X: 19661
T: Jemmy Duffy's
R: barndance
M: 4/4
K: Cmajor
B2|c3 A GFEC|Dddc dcAB|c2 cA GFEC|DEFD ECEG|
c3 A GFEC|Dddc dcAB|c2 cA GFEC|DEFD EC C2||
cdef gedc|d2 dc BG G2|cdef gecg|fedB c2 G2|
cdef gedc|d2 dc BG G2|cdef g2 ag|fedB c2||

